**kern	**kern	**dynam
*part1	*part1	*part1
*staff2	*staff1	*
*I"Piano	*	*
*clefF4	*clefG2	*
*k[]	*k[]	*
=1	=1	=1
!	!LO:TX:b:i:t=dim.	!
4.EE	16cLL	>
.	16e	.
.	16a	.
.	16e	.
.	16B 16g#X	.
.	16eJJ	.
=	=	=
4.AA	(16cLL	.
.	16e	.
.	16a	.
.	16e	.
.	16B 16g#X	.
.	16eJJ	.
=:|!	=:|!	=:|!
*^	*	*
8r	[4.AA	16cLL	] <
.	.	16e	.
8EL	.	16a	.
.	.	16e	.
8EJ	.	16g#X 16b	.
.	.	16eJJ	.
=	=	=	=
8EL	4.AA_	16ccLL	.
.	.	16a	.
8E	.	16dd 16ff	.
.	.	16a	.
8EJ	.	16cc 16ee	.
.	.	16aJJ	.
=	=	=	=
8EL	4.AA_	16fLL 16dd	[ mp >
.	.	16a	.
8E	.	16e 16cc	.
.	.	16a	.
8EJ	.	16d 16b	.
.	.	16g#XJJ)	.
=	=	=	=
*	*	*^	*
4.E	4.AA]	4.a	(8cL	] p
.	.	.	8d 8f	.
.	.	.	8cJ 8e	.
=	=	=	=	=
!	!	!LO:TX:b:i:t=dim.	!	!
8EL	4.r	4.e	8BL 8d	>
8E	.	.	8A 8c	.
8DJ 8E	.	.	8G#XJ) 8B	.
*	*	*v	*v	*
=	=	=	=
(4.D [4.E	[4.AA	(4.G#X 4.B [4.e	] pp
=	=	=	=
4.C;) 4.E]	4.AA]	4.A;) 4.e]	.
*v	*v	*	*
==	==	==
*-	*-	*-
!!!system-decoration: {(s1,s2)}
